local/share/icons/dracula-icons-main/scalable/mimetypes/virtualbox-vhd.svg

<?xml version="1.0" encoding="UTF-8"?>
<svg xmlns="http://www.w3.org/2000/svg" xmlns:xlink="http://www.w3.org/1999/xlink" width="64" height="64" viewBox="0 0 64 64">
<defs>
<filter id="filter-remove-color" x="0%" y="0%" width="100%" height="100%">
<feColorMatrix color-interpolation-filters="sRGB" values="0 0 0 0 1 0 0 0 0 1 0 0 0 0 1 0 0 0 1 0" />
</filter>
<mask id="mask-0">
<g filter="url(#filter-remove-color)">
<rect x="-6.4" y="-6.4" width="76.8" height="76.8" fill="rgb(0%, 0%, 0%)" fill-opacity="0.15"/>
</g>
</mask>
<linearGradient id="linear-pattern-0" gradientUnits="userSpaceOnUse" x1="49.570999" y1="52.714001" x2="51.714001" y2="54.856998" gradientTransform="matrix(0.617345, 0, 0, 0.617345, -18.167916, -19.050025)">
<stop offset="0" stop-color="rgb(0%, 0%, 0%)" stop-opacity="1"/>
<stop offset="1" stop-color="rgb(0%, 0%, 0%)" stop-opacity="0"/>
</linearGradient>
<clipPath id="clip-0">
<rect x="0" y="0" width="17" height="17"/>
</clipPath>
<g id="source-9487" clip-path="url(#clip-0)">
<path fill-rule="evenodd" fill="url(#linear-pattern-0)" d="M 14.816406 12.171875 L 11.113281 15.875 L 13.492188 15.875 C 14.226562 15.875 14.816406 15.285156 14.816406 14.550781 Z M 14.816406 12.171875 "/>
</g>
<mask id="mask-1">
<g filter="url(#filter-remove-color)">
<rect x="-6.4" y="-6.4" width="76.8" height="76.8" fill="rgb(0%, 0%, 0%)" fill-opacity="0.25"/>
</g>
</mask>
<clipPath id="clip-1">
<rect x="0" y="0" width="17" height="17"/>
</clipPath>
<g id="source-9491" clip-path="url(#clip-1)">
<path fill-rule="nonzero" fill="rgb(100%, 100%, 100%)" fill-opacity="1" d="M 9.261719 1.058594 L 10.320312 1.058594 L 10.320312 15.875 L 9.261719 15.875 Z M 9.261719 1.058594 "/>
</g>
<mask id="mask-2">
<g filter="url(#filter-remove-color)">
<rect x="-6.4" y="-6.4" width="76.8" height="76.8" fill="rgb(0%, 0%, 0%)" fill-opacity="0.25"/>
</g>
</mask>
<clipPath id="clip-2">
<rect x="0" y="0" width="17" height="17"/>
</clipPath>
<g id="source-9495" clip-path="url(#clip-2)">
<path fill-rule="nonzero" fill="rgb(100%, 100%, 100%)" fill-opacity="1" d="M 9.78125 1.058594 L 10.320312 1.058594 L 10.320312 15.875 L 9.78125 15.875 Z M 9.78125 1.058594 "/>
</g>
<mask id="mask-3">
<g filter="url(#filter-remove-color)">
<rect x="-6.4" y="-6.4" width="76.8" height="76.8" fill="rgb(0%, 0%, 0%)" fill-opacity="0.5"/>
</g>
</mask>
<clipPath id="clip-3">
<rect x="0" y="0" width="17" height="17"/>
</clipPath>
<g id="source-9499" clip-path="url(#clip-3)">
<path fill-rule="nonzero" fill="rgb(100%, 100%, 100%)" fill-opacity="1" d="M 4.234375 10.054688 C 3.941406 10.054688 3.703125 10.289062 3.703125 10.582031 L 3.703125 13.757812 C 3.703125 14.050781 3.941406 14.289062 4.234375 14.289062 L 7.40625 14.289062 C 7.703125 14.289062 7.9375 14.050781 7.9375 13.757812 L 7.9375 10.582031 C 7.9375 10.289062 7.703125 10.054688 7.40625 10.054688 Z M 4.234375 10.582031 L 7.40625 10.582031 L 7.40625 11.113281 L 4.234375 11.113281 Z M 4.234375 11.640625 L 6.613281 11.640625 L 6.613281 12.433594 L 4.234375 12.433594 Z M 6.878906 11.640625 L 7.40625 11.640625 L 7.40625 12.433594 L 6.878906 12.433594 Z M 4.234375 12.964844 L 6.613281 12.964844 L 6.613281 13.757812 L 4.234375 13.757812 Z M 6.878906 12.964844 L 7.40625 12.964844 L 7.40625 13.757812 L 6.878906 13.757812 Z M 6.878906 12.964844 "/>
</g>
</defs>
<path fill-rule="nonzero" fill="rgb(23.529412%, 33.72549%, 63.137255%)" fill-opacity="1" d="M 3.441406 1.058594 L 13.492188 1.058594 C 14.222656 1.058594 14.816406 1.652344 14.816406 2.382812 L 14.816406 14.550781 C 14.816406 15.28125 14.222656 15.875 13.492188 15.875 L 3.441406 15.875 C 2.707031 15.875 2.117188 15.28125 2.117188 14.550781 L 2.117188 2.382812 C 2.117188 1.652344 2.707031 1.058594 3.441406 1.058594 Z M 3.441406 1.058594 "/>
<g mask="url(#mask-0)">
<use xlink:href="#source-9487"/>
</g>
<g mask="url(#mask-1)">
<use xlink:href="#source-9491"/>
</g>
<g mask="url(#mask-2)">
<use xlink:href="#source-9495"/>
</g>
<g mask="url(#mask-3)">
<use xlink:href="#source-9499"/>
</g>
</svg>

<svg width="64" height="64" version="1.1" viewBox="0 0 16.933 16.933" xmlns="http://www.w3.org/2000/svg">
 <defs>
  <linearGradient id="a" x1="49.571" x2="51.714" y1="52.714" y2="54.857" gradientTransform="matrix(2.3333,0,0,2.3333,-68.667,-72.001)" gradientUnits="userSpaceOnUse">
   <stop offset="0"/>
   <stop stop-opacity="0" offset="1"/>
  </linearGradient>
 </defs>
 <g transform="scale(.26458)">
  <rect x="8" y="4" width="48" height="56" ry="5" fill="#3c56a1" style="paint-order:stroke fill markers"/>
  <path d="m56 46-14 14h9c2.77 0 5-2.23 5-5z" fill="url(#a)" fill-rule="evenodd" opacity=".15" stroke-width="8.8191" style="paint-order:stroke fill markers"/>
 </g>
 <g fill="#fff">
  <rect x="9.261" y="1.0583" width="1.0583" height="14.816" color="#000000" opacity=".25"/>
  <rect x="9.782" y="1.0583" width=".53659" height="14.816" color="#000000" opacity=".25"/>
  <path d="m4.2332 10.054c-0.29315 0-0.52916 0.236-0.52916 0.52916v3.175c0 0.29316 0.23601 0.52916 0.52916 0.52916h3.175c0.29315 0 0.52916-0.236 0.52916-0.52916v-3.175c0-0.29316-0.23601-0.52916-0.52916-0.52916zm0 0.52916h3.175v0.52916h-3.175zm0 1.0583h2.3812v0.79374h-2.3812zm2.6458 0h0.52916v0.79374h-0.52916zm-2.6458 1.3229h2.3812v0.79374h-2.3812zm2.6458 0h0.52916v0.79374h-0.52916z" opacity=".5" stroke-width=".26458" style="paint-order:fill markers stroke"/>
 </g>
</svg>
